X: 786
T: Ganxie gongchandang
L: 1/8
M: 2/4
K: F
c c A f [I:setbarnb 1]| 
d cA2 | 
f d c d | 
F DF2 | 
Ac2f | 
d c F3/ G/ | 
c A G F | 
C4 | 
Ac2f | 
d c F3/ G/ | 
c A G F | 
C4 |]

@@@ Tune index: 9660
